!!!COM:	Bach, Johann Sebastian
!!!CDT:	1685/02/21/-1750/07/28/
!!!OTL@@DE:	Herr Jesu Christ, du h&ouml;chstes Gut
!!!SCT:	BWV 168/6
!!!PC#:	92
!!!AGN:	chorale
**harm	**kern	**kern	**kern	**kern
*	*ICvox	*ICvox	*ICvox	*ICvox
*	*Ibass	*Itenor	*Ialto	*Isoprn
*	*I"Bass	*I"Tenor	*I"Alto	*I"Soprano
*>[A,A,B]	*>[A,A,B]	*>[A,A,B]	*>[A,A,B]	*>[A,A,B]
*>norep[A,B]	*>norep[A,B]	*>norep[A,B]	*>norep[A,B]	*>norep[A,B]
*>A	*>A	*>A	*>A	*>A
*	*	*oclefC4	*oclefC3	*oclefC1
*	*clefF4	*clefGv2	*clefG2	*clefG2
*k[f#c#]	*k[f#c#]	*k[f#c#]	*k[f#c#]	*k[f#c#]
*b:	*b:	*b:	*b:	*b:
*M4/4	*M4/4	*M4/4	*M4/4	*M4/4
*met(c)	*met(c)	*met(c)	*met(c)	*met(c)
*MM100	*MM100	*MM100	*MM100	*MM100
i	4B	4d	4f#	4b
=1	=1	=1	=1	=1
ii%7	4c#	4c#	4e	4b
viio65	4C#	4e	4g	4a#
i6	4D	4d	4f#	4b
ii%65	4E	4B	4g	4cc#
=2	=2	=2	=2	=2
V(64)	4F#	4B	4f#	4dd
V7	4F#	4A#	4e	4cc#
i;	4BB;	4B;	4d;	4b;
D:V/V	4E	4G#	4e	4b
=3	=3	=3	=3	=3
V	4AA	4AnX	4e	4cc#
V7	4A	4e	4g	4cc#
I	4d	4d	4f#	4ff#
b:V65	4A#	4f#	4cc#	4ee
=4	=4	=4	=4	=4
i	2B	2f#	2b	2dd
V;	4F#;	4f#;	4a#;	4cc#;
*>B	*>B	*>B	*>B	*>B
A:IV	4D	4f#	4anX	4ff#
=5	=5	=5	=5	=5
V	4E	4B	4g#	4ee
IV6	8F#L	8f#L	8aL	8ddL
V65	8G#J	8eJ	8bJ	8ddJ
I	4A	4e	4a	4cc#
b:viio7	4A#	4c#	4g	4ee
=6	=6	=6	=6	=6
i	4B	4B	4f#	4dd
V	4F#	4A#	4f#	4cc#
i;	4BB;	4d;	4f#;	4b;
i	4B	4B	4f#	4dd
=7	=7	=7	=7	=7
A:I	4AnX	4e	4a	4cc#
viio7/vi	4E#	4d	4g#	4b
vi	4.F#	4.c#	4.f#	4.a
iii6	8E	8G#X	8c#	8g#
=8	=8	=8	=8	=8
IV	4D	4F#	4f#	4a
viio6	4BB	4d	4g#	4b
I;	4AA;	4e;	4a;	4cc#;
D:V7	4A	4e	4g	4cc#
=9	=9	=9	=9	=9
vi	8BL	8dL	8f#L	8ddL
IV6	8BJ	8gJ	8bJ	8ddJ
V6	4c#	4e	4a	4ee
I	4d	4d	4f#	4ff#
b:V65	4A#	4c#	4f#	4ee
=10	=10	=10	=10	=10
i	4B	4B	4f#	4dd
iv6	4G	4B	4e	4ee
ii%65	4E	4B	4g	4cc#
V7	4F#	4A#	4e	4cc#
=11	=11	=11	=11	=11
I;	2.BB;	2.F#;	2.d#;	2.b;
==	==	==	==	==
*-	*-	*-	*-	*-
!!!YOR1: 371 vierstimmige Choralges&auml;nge von Johann Sebastian Bach, 
!!!YOR2: 4th ed. by Alfred D&ouml;rffel (Leipzig: Breitkopf und H&auml;rtel, 
!!!YOR2: c.1875). 178 pp. Plate "V.A.10".  reprint: J.S. Bach, 371 Four-Part 
!!!YOR4: Chorales (New York: Associated Music Publishers, Inc., c.1940).
!!!SMS: B&H, 4th ed, Alfred D&ouml;rffel, c.1875, plate V.A.10
!!!EED:  Craig Stuart Sapp
!!!EEV:  2009/05/22
